X: 1680
T: Sazkâr Seyir
C: Şefik Gürmeriç
O: Turkey
F: http://compmusic.upf.edu/node/140
N: sazkar--seyir--sofyan--1--sefik_gurmeric
N: makam= sazkar
N: form= seyir
N: usul= sofyan = 4/4
M: 4/4
L: 1/16
K: C _1/4B ^f  
Q: 1/4=60
%%MIDI tuningsystem comma53
G6A2 B8  | c2de d2c2 B3^A G4  | =f4 e2d2 d2c2 c2B2  | \
w:   |   |   | 
c2B^A B8 z4  | 
w:   | 
c6c_2/4B BcBA A4  | z2B4BA ABAG G4  | \
w:   |   | 
z4 G2A2 B2c2 d2e2  | 
w:   | 
d3c B2c2 d4 z4  | g4 =f2e2 e2d2 d2c2  | \
w:   |   | 
d3c B2^A2 B8  | c2d4e2 d4 c2B2  | 
w:   |   | 
c3B A2B2 A8  | c4 B2A2 A2G2 G2F2  | F3E D2E2 D4 G2A2  | \
w:   |   |   | 
B4 A2G2 F2G2 ABAG  | 
w:   | 
G16  | |


